X:1
T:Humboldt, LMD
T:Humboldt, LMD
T:H. W. Porter, 1899
T:Public Domain Courtesy of the Cyber Hymnal™
C:H. W. Porter, 1899
Z:Public Domain
Z:Courtesy of the Cyber Hymnal™
%%score ( 1 2 ) ( 3 4 )
L:1/8
Q:1/4=93
M:3/4
K:Ab
V:1 treble 
V:2 treble 
V:3 bass 
V:4 bass 
V:1
 [CE]2 | [CE][CA] [Ec]3 [Ec] | [Fc]>[FB] [FB]3 [FA] | [EG]>[DF] [DG]>[DF] [DG]>[DF] | %4
 F2 E2 z [CE] | [CE][CA] c3 [_Fc] | [Fc][Fd] [FA]3 [_FB] | [Ec]>[CA] [Ec]>[CA] [Ec]>[DG] | %8
 [CA]4 [_GA]2 | [Fd]>[Fd] [Fd]3 [Fd] | [Fd]>[Ec] [Ec]3 [Ec] | [=DB]>[EB] [FB][GB] [Ac][A=d] | %12
 (z E2) x6 | [CE][CA] [Ec]2 [_Ge]2 | [Fe][Fd] [FA]3!p! [_FB] | %15
 [Ec]>[CA] [Ec]>!pp![CA] !fermata![DB]>[DG] | [CA]4 |] %17
V:2
 x2 | x6 | x6 | x6 | C4 x2 | x2 (EA G) x | x6 | x6 | x6 | x6 | x6 | x6 | ([Ge]4 dBG) (ED) | x6 | %14
 x6 | x6 | x4 |] %17
V:3
 z2 | A,,E, ([A,C]E, [A,C])E, | [D,,D,]F, ([B,D]F, [B,D])F, | E,,E,B,E,B,E, | A,,E, (A,E,) A,E, | %5
 A,,E, ([A,C]E, [A,C])E, | D,F, ([A,D]F, [A,D])_F, | [E,A,C]2 [E,A,C]2 [E,,E,]2 | [A,,E,]4 [A,C]2 | %9
 [D,D]>[D,A,] [D,A,]3 [D,A,] | [A,,A,]>[A,,A,] [A,,A,]3 [A,,A,] | %11
 [B,,F,]>[B,,G,] [B,,A,][B,,B,] [B,,B,][B,,B,] | [E,B,]4 [E,G,]2 x3 | %13
 [A,,A,][A,,E,] [A,,A,]2 [C,A,]2 | [D,A,][D,A,] [D,D]3 [D,A,] | %15
 [E,A,]>E, [E,A,]>E, !fermata![E,A,]>[E,B,] | [A,,A,]4 |] %17
V:4
 x2 | x6 | x6 | x6 | x6 | x6 | x6 | x6 | x6 | x6 | x6 | x6 | x9 | x6 | x6 | x3/2 E,/ x E,/ x5/2 | %16
 x4 |] %17

